X:1
T: Brodie House
C:The Duke of Gordon
R:Reel
Q: 232
K:F
M:4/4
L:1/8
e|:f2fa ag fe|d2c2 c2A2|B2d2 dd BA|B2G2 G2e2|
f2fa ag fe|f2c2 c2A2|B2Bd c2cB|1A2F2 F2e2:|2A2F2 F2AB|
|:c2cA d2dB|c2cA F2Ac|c2cA d2dB|fe fg a2AB|
c2cA d2dB|c2A2 F2A2|B2Bd c2cB|1A2F2 F2AB:|2A2F2 F3||
